src/rounded/icons/fi-rr-document-signed.svg

<svg id="Layer_1" height="512" viewBox="0 0 24 24" width="512" xmlns="http://www.w3.org/2000/svg" data-name="Layer 1"><path d="m19.535 3.122-1.656-1.658a4.968 4.968 0 0 0 -3.536-1.464h-6.343a5.006 5.006 0 0 0 -5 5v14a5.006 5.006 0 0 0 5 5h8a5.006 5.006 0 0 0 5-5v-12.343a4.968 4.968 0 0 0 -1.465-3.535zm-1.414 1.414a2.932 2.932 0 0 1 .379.464h-2.5v-2.5a3.1 3.1 0 0 1 .465.38zm.879 14.464a3 3 0 0 1 -3 3h-8a3 3 0 0 1 -3-3v-14a3 3 0 0 1 3-3h6v3a2 2 0 0 0 2 2h3zm-3-10a1 1 0 0 1 0 2h-8a1 1 0 0 1 0-2zm1 5a1 1 0 0 1 -1 1h-8a1 1 0 0 1 0-2h8a1 1 0 0 1 1 1zm-.192 3.413a1 1 0 0 1 -.217 1.394 6.464 6.464 0 0 1 -3.456 1.193 3.252 3.252 0 0 1 -2-.7c-.328-.225-.453-.3-.7-.3a3.951 3.951 0 0 0 -1.832.794 1 1 0 0 1 -1.214-1.588 5.861 5.861 0 0 1 3.05-1.206 3.025 3.025 0 0 1 1.832.655 1.347 1.347 0 0 0 .864.345 4.586 4.586 0 0 0 2.277-.809 1 1 0 0 1 1.396.222z"/></svg>

<svg id="Layer_1" data-name="Layer 1" xmlns="http://www.w3.org/2000/svg" viewBox="0 0 24 24"><path d="M19.535,3.122,17.879,1.464A4.968,4.968,0,0,0,14.343,0H8A5.006,5.006,0,0,0,3,5V19a5.006,5.006,0,0,0,5,5h8a5.006,5.006,0,0,0,5-5V6.657A4.968,4.968,0,0,0,19.535,3.122ZM18.121,4.536A2.932,2.932,0,0,1,18.5,5H16V2.5a3.1,3.1,0,0,1,.465.38ZM19,19a3,3,0,0,1-3,3H8a3,3,0,0,1-3-3V5A3,3,0,0,1,8,2h6V5a2,2,0,0,0,2,2h3ZM16,9a1,1,0,0,1,0,2H8A1,1,0,0,1,8,9Zm1,5a1,1,0,0,1-1,1H8a1,1,0,0,1,0-2h8A1,1,0,0,1,17,14Zm-.192,3.413a1,1,0,0,1-.217,1.394A6.464,6.464,0,0,1,13.135,20a3.252,3.252,0,0,1-2-.7c-.328-.225-.453-.3-.7-.3a3.951,3.951,0,0,0-1.832.794,1,1,0,0,1-1.214-1.588A5.861,5.861,0,0,1,10.439,17a3.025,3.025,0,0,1,1.832.655,1.347,1.347,0,0,0,.864.345,4.586,4.586,0,0,0,2.277-.809A1,1,0,0,1,16.808,17.413Z"/></svg>
